X: 247
M: 2/4
L: 1/8
K: A
V: 1
|:\
|:\
cde=g | fdcB  | BcdB | ecBA |\
V: 2 clef=bass middle=d
|: c'2a2 | g2e2  | a2A2 | e2E2 | c'2a2 | g2e2 | a2e2 | a2A2 :|
|: a2c'2 | d'2b2 | g2b2 | c'2a2 | e2g2 | a2c2 | d2e2 | a2A2 :|

